X: 3092
T: Bear Dance, The
R: polka
M: 2/4
K: Aminor
|:Ac Ac|BG G2|Ac Ac|d2 cd|
e2 d2|c2 B2|Ac BG|AA A2:|
|:eA A/B/c/d/|eA A>B|cc Bc|d2 cd|
eA eA|eA A>B|cc BG|AA A2:|

